X:1
T:F Major Oliver Holden, 1793
T:Isaac Watts, 1719 (Psalm 93) 10 10. 10 10. 11 11.
T:Middlesex No copyright. Transcribed from The Union Harmony, 1793.
%%score [ 1 2 3 ]
L:1/8
M:4/4
K:F
V:1 treble nm="Treble" snm="Tr."
V:2 treble-8 nm="Tenor" snm="T."
V:3 bass nm="Bass" snm="B."
V:1
 c4 | c2 B2 A2 f2 | d6 A2 | (F2 A2 c2) B2 | A8 | A4 A2 A2 | (A2 c4) e2 | f2 e2 d2 d2 | c8 | %9
w: 1.~The|Lord of glo- ry|reigns, He|reigns~ _ _ on|high;|His robes of|state * are|strength and ma- jes-|ty:|
 c4 c2 c2 | [Af]6 c2 | f2 c2 d2 B2 | A8 | B4 B2 B2 | B6 A2 | G2 F2 c2 c2 | c8 |: f4 e2 e2 | f6 A2 | %19
w: This wide cre-|a- tion|rose at His com-|mand,|Built by His|word and|'stab- lished by His|hand:|Long stood His|throne ere|
 A2 A2 A2 B2 | c4 d4 | d4 d2 A2 | A2 F2 c2 c2 | (B4 A2) c2 | c8 | c8 :| %26
w: He be- gan cre-|a- tion,|And His own|God- head is the|firm~ _ foun-|da-|tion.|
V:2
 F4 | A2 B2 c2 BA | B6 c2 | (d2 f2 e2) d^c | d8 | c4 c2 c2 | f6 c2 | d2 c2 =B2 B2 | c8 | A4 A2 F2 | %10
w: 2.~God|is th'e- ter- nal *|King: Thy|foes~ _ _ in *|vain|Raise their re-|bel- lions|to con- found Thy|reign;|In vain the|
 c6 A2 | d2 e2 f2 d2 | c8 | d4 d2 d2 | d6 c2 | B2 A2 G2 G2 | F8 |: c4 c2 c2 | c6 c2 | d2 e2 f2 d2 | %20
w: storms, in|vain the floods a-|rise,|and roar, and|toss their|waves a- gainst the|skies:|Foam- ing at|heav'n, they|rage with wild com-|
 A4 A4 | B4 G2 A2 | c2 A2 F2 f2 | (d4 c2) A2 | G8 | F8 :| %26
w: mo- tion,|But heav'n's high|ar- ches scorn the|swel- * ling|o-|cean.|
V:3
 F,4 | F,2 G,2 A,2 F,2 | G,6 E,2 | (F,2 D,2 A,2) A,,2 | D,8 | F,4 F,2 F,2 | F,6 E,2 | %7
w: 3.~Ye|tem- pests, rage no|more; ye|floods,~ _ _ be|still;|And the mad|world sub-|
 D,2 E,2 F,2 G,2 | C,8 | F,4 F,2 F,2 | F,6 F,2 | F,2 E,2 D,2 G,2 | A,8 | G,4 G,2 G,2 | G,6 A,2 | %15
w: mis- sive to His|will:|Built on His|truth, the|church must ev- er|stand;|Firm are His|pro- mi-|
 B,2 C2 C,2 C,2 | F,8 |: F,4 C,2 C,2 | F,6 E,2 | D,2 C,2 F,2 G,2 | A,4 D,4 | G,4 G,2 F,2 | %22
w: ses, and strong His|hand:|See His own|sons, when|they ap- pear be-|fore Him,|Bow at his|
 E,2 D,2 C,2 F,2 | (G,4 A,2) F,2 | C,8 | F,8 :| %26
w: foot- stool, and with|fear~ _ a-|dore|Him.|

